X: 4
T: Kennet's Square Quickstep  v.1
P: piffero primo b0026
O: Camp Dupont
%R: quickstep, march
F: http://ancients.sudburymuster.org/mus/ssp/pdf/belleisleF.pdf
Z: 2019 John Chambers <jc:trillian.mit.edu>
M: 2/4
L: 1/8
K: D
A |\
dd de | ff fd | ee ec | dA FA |\
dd de | ff fd | ee ec | d2 z :: f |\
aa ag | ff fd | aa ag |
f3 f |\
aa ag | ff fd | aa ag | f3 d |\
gg ge | ff fd | gg ge | a3 f |\
gg ge | ff fd | ee ec | d2 z :|


